images/rewiews-recruit__logo.svg

<svg width="203" height="58" viewBox="0 0 203 58" fill="none" xmlns="http://www.w3.org/2000/svg">
<g clip-path="url(#clip0_20_309)">
<path d="M53.0833 0.333374H62.2751V57.3334H53.0833V0.333374ZM94.4464 39.1504C94.4464 47.8737 87.0539 48.5691 84.8547 48.5691C79.3603 48.5691 78.3607 43.4664 78.3607 40.3884V18.5734H69.1689V40.3428C69.1689 45.7464 70.8786 50.2061 73.8751 53.1792C76.5224 55.8081 80.4886 57.2445 84.7858 57.2445C87.8329 57.2445 92.1484 56.3028 94.4464 54.2212V57.3334H103.638V18.5734H94.4464V39.1504ZM122.022 4.89337H112.83V18.5734H105.936V27.6934H112.83V57.3334H122.022V27.6934H128.916V18.5734H122.022V4.89337ZM157.863 45.7441C155.861 47.5294 153.219 48.5189 150.319 48.5189C143.926 48.5189 139.231 43.8609 139.231 37.4655C139.231 31.0701 143.777 26.6081 150.319 26.6081C153.168 26.6081 155.861 27.5497 157.914 29.335L159.308 30.5251L165.506 24.3783L163.955 22.9897C160.308 19.7225 155.466 17.8894 150.316 17.8894C138.827 17.8894 130.483 26.1156 130.483 37.4176C130.483 48.6717 139.027 57.192 150.316 57.192C155.563 57.192 160.455 55.3589 164.056 52.0392L165.554 50.6507L159.26 44.5084L157.863 45.7441ZM198.314 21.9523C195.667 19.3258 192.564 17.8894 188.267 17.8894C185.22 17.8894 181.769 18.831 179.471 20.9104V0.333374H170.279V57.3334H179.471V35.9812C179.471 27.2579 185.716 26.5648 187.916 26.5648C193.41 26.5648 193.258 31.6697 193.258 34.7431V57.3334H202.45V34.791C202.45 29.3874 201.313 24.9277 198.314 21.9523Z" fill="white"/>
<path d="M150.016 30.9719C151.778 30.9719 153.468 31.6666 154.715 32.9032C155.961 34.1398 156.661 35.8169 156.661 37.5657C156.661 39.3145 155.961 40.9916 154.715 42.2282C153.468 43.4647 151.778 44.1594 150.016 44.1594C148.253 44.1594 146.563 43.4647 145.316 42.2282C144.07 40.9916 143.37 39.3145 143.37 37.5657C143.37 35.8169 144.07 34.1398 145.316 32.9032C146.563 31.6666 148.253 30.9719 150.016 30.9719Z" fill="#FF3D2E"/>
<path d="M40.2147 43.0172C36.7196 46.5854 31.972 48.5188 26.9762 48.5188C16.7366 48.5188 9.29121 40.5388 9.29121 29.5857C9.29121 18.5824 16.7366 10.6024 26.9762 10.6024C31.9237 10.6024 36.6185 12.5336 40.1665 16.0539L41.5636 17.4424L47.7084 11.3457L46.3595 9.9572C41.2649 4.75196 34.3711 1.92932 26.9762 1.92932C11.8902 1.92932 0.549805 13.8241 0.549805 29.6336C0.549805 45.3952 11.9408 57.2421 26.9762 57.2421C34.4216 57.2421 41.3155 54.3693 46.41 49.1641L47.7589 47.7756L41.6648 41.5808L40.2147 43.0172Z" fill="white"/>
</g>
<defs>
<clipPath id="clip0_20_309">
<rect width="202" height="57" fill="white" transform="translate(0.5 0.333313)"/>
</clipPath>
</defs>
</svg>

<svg xmlns="http://www.w3.org/2000/svg" width="203" height="58" fill="none"><g clip-path="url(#a)"><path fill="#fff" d="M53.083.333h9.192v57h-9.192v-57ZM94.446 39.15c0 8.724-7.392 9.42-9.591 9.42-5.495 0-6.494-5.104-6.494-8.182V18.573h-9.192v21.77c0 5.403 1.71 9.863 4.706 12.836 2.647 2.63 6.614 4.066 10.91 4.066 3.048 0 7.363-.942 9.661-3.024v3.112h9.192v-38.76h-9.192V39.15Zm27.576-34.257h-9.192v13.68h-6.894v9.12h6.894v29.64h9.192v-29.64h6.894v-9.12h-6.894V4.893Zm35.841 40.851c-2.002 1.785-4.644 2.775-7.544 2.775-6.393 0-11.088-4.658-11.088-11.053 0-6.396 4.546-10.858 11.088-10.858 2.849 0 5.542.942 7.595 2.727l1.394 1.19 6.198-6.147-1.551-1.388c-3.647-3.267-8.489-5.1-13.639-5.1-11.489 0-19.833 8.226-19.833 19.528 0 11.254 8.544 19.774 19.833 19.774 5.247 0 10.139-1.833 13.74-5.153l1.498-1.388-6.294-6.143-1.397 1.236Zm40.451-23.792c-2.647-2.626-5.75-4.063-10.047-4.063-3.047 0-6.498.942-8.796 3.021V.333h-9.192v57h9.192V35.981c0-8.723 6.245-9.416 8.445-9.416 5.494 0 5.342 5.105 5.342 8.178v22.59h9.192V34.791c0-5.404-1.137-9.863-4.136-12.839Z"/><path fill="#FF3D2E" d="M150.016 30.972c1.762 0 3.452.695 4.699 1.931a6.569 6.569 0 0 1 1.946 4.663c0 1.748-.7 3.426-1.946 4.662a6.674 6.674 0 0 1-4.699 1.931 6.675 6.675 0 0 1-4.7-1.93 6.569 6.569 0 0 1-1.946-4.663c0-1.75.7-3.426 1.946-4.663a6.674 6.674 0 0 1 4.7-1.931Z"/><path fill="#fff" d="M40.215 43.017c-3.495 3.568-8.243 5.502-13.239 5.502-10.24 0-17.685-7.98-17.685-18.933 0-11.004 7.446-18.984 17.685-18.984 4.948 0 9.642 1.932 13.19 5.452l1.398 1.388 6.144-6.096-1.349-1.389C41.265 4.752 34.371 1.93 26.976 1.93 11.89 1.93.55 13.824.55 29.634c0 15.761 11.39 27.608 26.426 27.608 7.446 0 14.34-2.873 19.434-8.078l1.349-1.388-6.094-6.195-1.45 1.436Z"/></g><defs><clipPath id="a"><path fill="#fff" d="M.5.333h202v57H.5z"/></clipPath></defs></svg>
